www/assets/icons/doorbell.svg

<svg xmlns="http://www.w3.org/2000/svg" width="24" height="24" viewBox="0 0 24 24" fill='currentColor'><path d="M12 3 4 9v12h16V9zm0 14.5c-.55 0-1-.45-1-1h2c0 .55-.45 1-1 1m4-1.5H8v-1h1v-2.34c0-1.54.82-2.82 2.25-3.16v-.25c0-.41.34-.75.75-.75s.75.34.75.75v.25c1.44.34 2.25 1.62 2.25 3.16V15h1z"/></svg>

<svg width="24" height="24" viewBox="0 0 24 24" xmlns="http://www.w3.org/2000/svg" fill='currentColor'><path d="M12 3L4 9V21H20V9L12 3ZM12 17.5C11.45 17.5 11 17.05 11 16.5H13C13 17.05 12.55 17.5 12 17.5ZM16 16H8V15H9V12.66C9 11.12 9.82 9.84 11.25 9.5V9.25C11.25 8.84 11.59 8.5 12 8.5C12.41 8.5 12.75 8.84 12.75 9.25V9.5C14.19 9.84 15 11.12 15 12.66V15H16V16Z"/></svg>
